X: 1273
T: Kurbânın Olam Ey Âfet-i Can
C: Hacı Ârif Bey
O: Turkey
F: http://compmusic.upf.edu/node/140
N: hicaz-humayun--sarki--aksak--kurbanin_olam--haci_arif_bey
N: makam= hicaz-humayun
N: form= sarki
N: usul= aksak = 9/8
M: 9/8
L: 1/16
K: C _7/8B ^c  
Q: 1/4=156
%%MIDI tuningsystem comma53
z4 c2d2 e8-e2 | e2 d4 f2e2 d2c4B2  | \
w:  Kur *  bâ  |  nın_ o *  lam   | 
A2G2 A2B2 c2d2 e4 d2 | e2 g2f2 e2d2 c2d4z2  | 
w:  *  *  ey  *  â *  *  fet_  |  i  *  *  *  cân    | 
z4 c2d2 e8-e2 | e2 d4 f2e2 d2c4B2  | \
w:  Kur *  bâ  |  nın_ o *  lam   | 
A2G2 A2B2 c2d2 e4 d2 | e2 g2f2 e2d2 c2d4z2  | 
w:  *  *  ey  *  â *  *  fet_  |  i  *  *  *  cân    | 
z2e4g2 f2e2 f6 | e2 d4 f2e2 d2c4B2  | \
w:  Rahm_ *  ey  |  le  ba *  na   | 
A2G2 g2f2 e2d2 {e}c4 d2 | 
w:  *  *  hâ *  lim  *  *  *  pe  | 
c2 B2B2 A2A4e4z2  | z2e4g2 f2e2 f6 | \
w:  rî *  *  *  şân   SAZ  |  Rahm_ *  ey  | 
e2 d4 f2e2 d2c4B2  | A2G2 g2f2 e2d2 {e}c4 d2 | 
w:  le  ba *  na   |  *  *  hâ *  lim  *  *  *  pe  | 
c2 B2B2 A2A4^f4z2  | z2^f4a2 g2f2 g6 | \
w:  rî *  *  *  şân   SAZ  |  N'ol *  du   | 
e2 g2f2 e2d2 c2d4z2  | 
w:  e fen *  *  dim   | 
e2^3/4f2 g2f2 e2d2 =c'=ba2 g2 | g3^3/4f=f2 fee4^f4z2  | \
w:  ahd_ *  *  *  i *  *  *  *  le   |  pey *  *  *  *  mân    | 
z2^f4a2 g2f2 g6 | 
w:  N'ol *  du   | 
e2 g2f2 e2d2 c2d4z2  | e2^3/4f2 g2f2 e2d2 =c'=ba2 g2 | \
w:  e fen *  *  dim   |  ahd_ *  *  *  i *  *  *  *  le   | 
g3^2/4f=f2 fee8z2  | 
w:  pey *  *  *  *  mân    | 
z2e4g2 f2e2 f6 | e2 d4 f2e2 d2c4B2  | \
w:  Rahm_ *  ey  |  le  ba *  na   | 
A2G2 g2f2 e2d2 {e}c4 d2 | 
w:  *  *  hâ *  lim  *  *  *  pe  | 
c2 B2B2 A2A4e4z2  | z2e4g2 f2e2 f6 | \
w:  rî *  *  *  şân   SAZ  |  Rahm_ *  ey  | 
e2 d4 f2e2 d2c4B2  | A2G2 g2f2 e2d2 {e}c4 d2 | 
w:  le  ba *  na   |  *  *  hâ *  lim  *  *  *  pe  | 
c2 B2B2 A2A8z2  | |


